X:1
T:Title
%%score { ( 1 3 ) | ( 2 4 ) }
L:1/8
Q:1/4=112
M:4/4
K:F
V:1 treble nm="Grand Piano"
V:3 treble 
V:2 bass 
V:4 bass 
V:1
 A3 B A2 G2 | F2 F2 F4 | [CEG]3 [G,C] [F,CF]2 [CEG]2 | A6 z2 | c3 d c2 A2 | [^CA]2 [A,EG]2 [A,F]4 | %6
w: John~R.~Sweney * * *||||||
 [B,EG]3 [A,F] [CFA]2 [B,EG]2 | [A,F]6 z2 | [CEG]3 [G,C] [F,CF]2 [EG]2 | A4 c3 c | %10
w: ||||
 d2 c2 [CAc]2 [CFA]2 | [CFA]4 [CEG]4 | [CF]3 [CF] [CEG]2 [CEG]2 | %13
w: |||
[M:9/8] [FA]3- [FA] [DFB]2- [DFB][Fd][Fd] |[M:4/4] [Fc] [FA]3 [FA]2 [EG]2 | [CF]6 z2 |] %16
w: |||
V:2
 [F,CF]3 [F,DF] [F,CF]2 [F,B,C]2 | [F,A,C]2 [F,B,D]2 [F,A,C]4 | C,3 B,, A,,2 C,2 | [F,CF]6 z2 | %4
 [F,A,F]3 [F,B,F] [F,A,F]2 [F,C]2 | [A,,E,]2 A,,2 D,4 | C,3 C, C,2 C,2 | F,6 z2 | %8
 C,3 B,, A,,2 [C,C]2 | [F,F]4[K:treble] [F,A,F]3 [F,A,F] | [B,F]2 [A,CF]2[K:bass] F,2 F,2 | %11
 C,4 C,3 B,, | A,,3 A,, C,2 C,2 |[M:9/8] z2 _E- E B,,2- B,,[B,,B,][B,,B,] | %14
[M:4/4] [C,A,] [C,C]3 [C,C]2 [C,B,]2 | [F,A,]6 z2 |] %16
V:3
 x8 | x8 | x8 | x8 | x8 | x8 | x8 | x8 | x8 | x8 | x8 | x8 | x8 |[M:9/8] .C3 z3 z3 |[M:4/4] x8 | %15
 x8 |] %16
V:4
 x8 | x8 | x8 | x8 | x8 | x8 | x8 | x8 | x8 | x4[K:treble] x4 | x4[K:bass] x4 | x8 | x8 | %13
[M:9/8] .F,6 z3 |[M:4/4] x8 | x8 |] %16

